X: 1
T:Gan Ainm
R:Jig
S:Junior Crehan and Bobby Casey, Clare (fiddles)
H:Followed by 'Johnny I Hardly Knew You'
D:Clare FM broadcast. From the Miltown Malbay fiddle recital.
Z:Bernie Stocks
M:6/8
L:1/8
K:G
|:EAA A2B|c2d e3|dBA B2A|BAG E2D|!
EAA A2B|c2d e2f|gfe dBA|B2A A3:|!
|:a2g efg|a2g e2f|gfe def|~g3 bag|!
a2g efg|a2g e2f|1 gfe dBA|B2A A3:|2 gfe dBA|cBA BAG||!
